X:11
T:Gavotte in D Major
C:Bach, J.S.
M:2/2
L:1/8
Q:1/2=80
K:D
|:AB|d2 d2 dA FA|G2 G2 GFED|E2 E2 EFGA|B4 B2AB|
d2 d2 defa|g2 g2 gfed|egfe dcBA|d4 d2:|

